Yosa-Max/places/scalable/folder-books.svg

<?xml version="1.0" encoding="UTF-8"?>
<svg id="svg5453" version="1.1" viewBox="0 0 64 64" xmlns="http://www.w3.org/2000/svg">
 <defs id="defs5455">
  <linearGradient id="linearGradient833" x1="32.010437" x2="31.962496" y1="57.89262" y2="15.119835" gradientTransform="translate(0,-3.8146973e-6)" gradientUnits="userSpaceOnUse">
   <stop id="stop827" style="stop-color:#20bcfa" offset="0"/>
   <stop id="stop829" style="stop-color:#46c7fc" offset="1"/>
  </linearGradient>
 </defs>
 <path id="folderTab-3" d="m4 6c-0.55122 0.05512-1 0.446-1 1v42h58v-38c0-1-1-1-1-1h-27c-2-4-6-4-6-4h-22z" style="fill-rule:evenodd;fill:#209efa"/>
 <path id="folderPaper-6" d="m7 13h50v32h-50z" style="color-rendering:auto;color:#000000;fill:#fffbec;image-rendering:auto;isolation:auto;mix-blend-mode:normal;shape-rendering:auto;solid-color:#000000;text-decoration-color:#000000;text-decoration-line:none;text-decoration-style:solid;white-space:normal"/>
 <path id="folderFront-2" d="m39 14.999996s-4 0-6 4h-31s-0.1319813 0.01691-0.2890625 0.05859c-0.045956 0.01404-0.091922 0.02277-0.1347656 0.04297-0.2742277 0.109838-0.5761719 0.34321-0.5761719 0.89844v37c0 0.55397 0.44603 1 1 1h60c0.55397 0 1-0.44603 1-1v-41c0-0.55397-0.44603-1-1-1h-1z" style="fill-rule:evenodd;fill:url(#linearGradient833)"/>
 <path id="path4140" d="m41.000009 29.529406c-1.110012-0.370595-2.330007-0.529411-3.500002-0.529411-1.95001 0-4.050001 0.423527-5.500011 1.588233-1.450001-1.164706-3.549993-1.588233-5.499994-1.588233-1.950009 0-4.050002 0.423527-5.500002 1.588233v15.511766c0 0.264719 0.25 0.529429 0.500001 0.529429 0.100001 0 0.149999-0.05295 0.250009-0.05295 1.349991-0.688227 3.299982-1.164707 4.749992-1.164707 1.950001 0 4.049993 0.423536 5.500002 1.588234 1.349992-0.899996 3.800002-1.588234 5.500003-1.588234 1.649992 0 3.349992 0.317643 4.749993 1.111765 0.100001 0.05295 0.15 0.05295 0.249999 0.05295 0.250001 0 0.500001-0.2647 0.500001-0.529421v-15.458832c-0.6-0.476468-1.249992-0.794102-1.999991-1.058822m0 14.294134c-1.100019-0.370595-2.30001-0.529412-3.500002-0.529412-1.700001 0-4.150011 0.688229-5.500003 1.588234v-12.176469c1.349992-0.900015 3.800002-1.588253 5.500003-1.588253 1.199992 0 2.399983 0.158826 3.500002 0.529411z" style="fill:#f9f9f9;stroke-width:1.5277593"/>
</svg>

<?xml version="1.0" encoding="UTF-8" standalone="no"?>
<svg
   xmlns:dc="http://purl.org/dc/elements/1.1/"
   xmlns:cc="http://creativecommons.org/ns#"
   xmlns:rdf="http://www.w3.org/1999/02/22-rdf-syntax-ns#"
   xmlns:svg="http://www.w3.org/2000/svg"
   xmlns="http://www.w3.org/2000/svg"
   xmlns:xlink="http://www.w3.org/1999/xlink"
   xmlns:sodipodi="http://sodipodi.sourceforge.net/DTD/sodipodi-0.dtd"
   xmlns:inkscape="http://www.inkscape.org/namespaces/inkscape"
   viewBox="0 0 64 64"
   version="1.1"
   id="svg5453"
   height="64"
   width="64"
   sodipodi:docname="folder-books.svg"
   inkscape:version="0.92.4 (unknown)">
  <sodipodi:namedview
     pagecolor="#ffffff"
     bordercolor="#666666"
     borderopacity="1"
     objecttolerance="10"
     gridtolerance="10"
     guidetolerance="10"
     inkscape:pageopacity="0"
     inkscape:pageshadow="2"
     inkscape:window-width="1366"
     inkscape:window-height="711"
     id="namedview15"
     showgrid="false"
     inkscape:zoom="3.6875"
     inkscape:cx="-16.677966"
     inkscape:cy="32"
     inkscape:window-x="0"
     inkscape:window-y="0"
     inkscape:window-maximized="1"
     inkscape:current-layer="svg5453" />
  <defs
     id="defs5455">
    <linearGradient
       id="linearGradient831">
      <stop
         style="stop-color:#20bcfa;stop-opacity:1;"
         offset="0"
         id="stop827" />
      <stop
         style="stop-color:#46c7fc;stop-opacity:1"
         offset="1"
         id="stop829" />
    </linearGradient>
    <linearGradient
       xlink:href="#linearGradient831"
       id="linearGradient833"
       x1="32.010437"
       y1="57.89262"
       x2="31.962496"
       y2="15.119835"
       gradientUnits="userSpaceOnUse"
       gradientTransform="translate(0,-3.8146973e-6)" />
  </defs>
  <metadata
     id="metadata5458">
    <rdf:RDF>
      <cc:Work
         rdf:about="">
        <dc:format>image/svg+xml</dc:format>
        <dc:type
           rdf:resource="http://purl.org/dc/dcmitype/StillImage" />
        <dc:title />
      </cc:Work>
    </rdf:RDF>
  </metadata>
  <path
     inkscape:connector-curvature="0"
     style="fill:#209efa;fill-opacity:1;fill-rule:evenodd;stroke:none;stroke-width:1px;stroke-linecap:butt;stroke-linejoin:miter;stroke-opacity:1"
     d="M 4,6 C 3.44878,6.05512 3,6.446 3,7 V 9 49 H 61 V 14 13 11 c 0,-1 -1,-1 -1,-1 H 58 37 33 C 31,6 27,6 27,6 H 5 Z"
     id="folderTab-3" />
  <path
     inkscape:connector-curvature="0"
     style="color:#000000;text-decoration:none;text-decoration-line:none;text-decoration-style:solid;text-decoration-color:#000000;white-space:normal;clip-rule:nonzero;display:inline;overflow:visible;visibility:visible;opacity:1;isolation:auto;mix-blend-mode:normal;color-interpolation:sRGB;color-interpolation-filters:linearRGB;solid-color:#000000;solid-opacity:1;fill:#fffbec;fill-opacity:1;fill-rule:nonzero;stroke:none;stroke-width:1;stroke-linecap:butt;stroke-linejoin:miter;stroke-miterlimit:4;stroke-dasharray:none;stroke-dashoffset:0;stroke-opacity:1;color-rendering:auto;image-rendering:auto;shape-rendering:auto;text-rendering:auto;enable-background:accumulate"
     d="M 7,13 H 57 V 45 H 7 Z"
     id="folderPaper-6" />
  <path
     inkscape:connector-curvature="0"
     style="fill:url(#linearGradient833);fill-opacity:1;fill-rule:evenodd;stroke:none;stroke-width:1px;stroke-linecap:butt;stroke-linejoin:miter;stroke-opacity:1"
     d="m 39,14.999996 c 0,0 -4,0 -6,4 H 29 4 2 c 0,0 -0.1319813,0.01691 -0.2890625,0.05859 -0.045956,0.01404 -0.091922,0.02277 -0.1347656,0.04297 C 1.3019442,19.211394 1,19.444766 1,19.999996 v 2 1 34 c 0,0.55397 0.44603,1 1,1 h 60 c 0.55397,0 1,-0.44603 1,-1 v -39 -2 c 0,-0.55397 -0.44603,-1 -1,-1 h -1 z"
     id="folderFront-2" />
  <path
     id="path4140"
     d="m 41.000009,29.529406 c -1.110012,-0.370595 -2.330007,-0.529411 -3.500002,-0.529411 -1.95001,0 -4.050001,0.423527 -5.500011,1.588233 -1.450001,-1.164706 -3.549993,-1.588233 -5.499994,-1.588233 -1.950009,0 -4.050002,0.423527 -5.500002,1.588233 v 15.511766 c 0,0.264719 0.25,0.529429 0.500001,0.529429 0.100001,0 0.149999,-0.05295 0.250009,-0.05295 1.349991,-0.688227 3.299982,-1.164707 4.749992,-1.164707 1.950001,0 4.049993,0.423536 5.500002,1.588234 1.349992,-0.899996 3.800002,-1.588234 5.500003,-1.588234 1.649992,0 3.349992,0.317643 4.749993,1.111765 0.100001,0.05295 0.15,0.05295 0.249999,0.05295 C 42.75,46.576481 43,46.311781 43,46.04706 V 30.588228 C 42.4,30.11176 41.750008,29.794126 41.000009,29.529406 m 0,14.294134 c -1.100019,-0.370595 -2.30001,-0.529412 -3.500002,-0.529412 -1.700001,0 -4.150011,0.688229 -5.500003,1.588234 V 32.705893 c 1.349992,-0.900015 3.800002,-1.588253 5.500003,-1.588253 1.199992,0 2.399983,0.158826 3.500002,0.529411 z"
     style="fill:#e3f9f9;fill-opacity:1;stroke-width:1.52775931"
     inkscape:connector-curvature="0" />
</svg>
